libs/icons/src/svg/closed-captions.svg

<svg width="16" height="16" viewBox="0 0 16 16" fill="none" xmlns="http://www.w3.org/2000/svg">
<path fill-rule="evenodd" clip-rule="evenodd" d="M0 3.33332C0 2.96513 0.298477 2.66666 0.666667 2.66666H15.3333C15.7015 2.66666 16 2.96513 16 3.33332V12.6667C16 13.0348 15.7015 13.3333 15.3333 13.3333H0.666667C0.298477 13.3333 0 13.0348 0 12.6667V3.33332ZM1.33333 3.99999V12H14.6667V3.99999H1.33333ZM5.33121 6.82156C5.17182 6.91464 5.04423 7.0537 4.96516 7.22055C4.85443 7.45989 4.79992 7.72141 4.80582 7.98508C4.80626 8.00446 4.80585 8.02385 4.80459 8.04319C4.78124 8.40282 4.88798 8.75849 5.10473 9.04556C5.20075 9.1415 5.31548 9.21684 5.44191 9.26682C5.57726 9.32032 5.72271 9.34345 5.86798 9.33457C5.88519 9.33352 5.90244 9.33314 5.91969 9.33342C6.19247 9.33793 6.4638 9.2928 6.72043 9.20022C7.06677 9.07528 7.44882 9.25476 7.57377 9.6011C7.69871 9.94744 7.51923 10.3295 7.17288 10.4544C6.77202 10.599 6.34865 10.671 5.92265 10.6669C5.5914 10.6833 5.26035 10.6288 4.95173 10.5068C4.63482 10.3815 4.34929 10.1882 4.11531 9.94041C4.10165 9.92595 4.08865 9.91088 4.07634 9.89526C3.64927 9.35323 3.43474 8.67436 3.47231 7.986C3.46638 7.52754 3.56349 7.07346 3.75661 6.65734L3.75828 6.65373L3.7583 6.65374C3.95433 6.23788 4.27305 5.89205 4.67156 5.66279L4.68241 5.65668C5.08447 5.43528 5.53771 5.32377 5.99646 5.33327C6.47812 5.33054 6.95393 5.43937 7.38658 5.65129C7.71723 5.81325 7.85399 6.2126 7.69203 6.54325C7.53007 6.87391 7.13072 7.01066 6.80007 6.8487C6.55036 6.72639 6.27556 6.66405 5.99752 6.66663C5.98986 6.66671 5.9822 6.66664 5.97454 6.66645C5.75016 6.6608 5.52829 6.71431 5.33121 6.82156ZM9.73234 7.22097C9.81183 7.05397 9.93973 6.91479 10.0994 6.8215C10.2964 6.71426 10.5182 6.66077 10.7425 6.66646C10.7502 6.66665 10.7579 6.66671 10.7657 6.66664C11.0434 6.66401 11.3178 6.72631 11.5672 6.84858C11.8978 7.01068 12.2972 6.87411 12.4593 6.54353C12.6214 6.21294 12.4848 5.81354 12.1542 5.65143C11.7218 5.43936 11.2461 5.33048 10.7645 5.33328C10.3057 5.32371 9.85241 5.43525 9.45034 5.65675L9.43945 5.66289C9.0412 5.89212 8.7225 6.23757 8.52604 6.65297L8.52602 6.65296L8.52398 6.65735C8.33096 7.07326 8.23385 7.5271 8.23968 7.98533C8.2009 8.67333 8.41432 9.35228 8.84053 9.89461C8.85292 9.91037 8.86601 9.92557 8.87977 9.94015C9.11424 10.1887 9.40059 10.3825 9.71845 10.5079C10.0278 10.6298 10.3596 10.684 10.6915 10.6669C11.1172 10.6708 11.5402 10.5989 11.9407 10.4545C12.2871 10.3297 12.4667 9.9477 12.3419 9.60132C12.2171 9.25494 11.8351 9.07533 11.4887 9.20015C11.2319 9.29269 10.9604 9.33785 10.6875 9.33343C10.6698 9.33314 10.6521 9.33356 10.6345 9.33467C10.489 9.3439 10.3432 9.32096 10.2075 9.26747C10.0809 9.21753 9.96597 9.14211 9.86984 9.046C9.65381 8.75902 9.54783 8.40364 9.57187 8.04455C9.5732 8.02476 9.57364 8.00492 9.5732 7.98508C9.5673 7.72157 9.62174 7.4602 9.73234 7.22097Z" fill="#202327"/>
</svg>

<svg xmlns="http://www.w3.org/2000/svg" viewBox="0 0 16 16" class="sageicon"><path fill-rule="evenodd" d="M0 3.333c0-.368.298-.666.667-.666h14.666c.368 0 .667.298.667.666v9.334a.667.667 0 0 1-.667.666H.667A.667.667 0 0 1 0 12.667V3.333ZM1.333 4v8h13.334V4H1.333Zm3.998 2.822a.917.917 0 0 0-.366.399c-.11.239-.165.5-.16.764v.058c-.024.36.083.715.3 1.003a.994.994 0 0 0 .763.289.67.67 0 0 1 .052-.002c.272.005.544-.04.8-.133a.667.667 0 0 1 .453 1.254c-.401.145-.824.217-1.25.213a2.328 2.328 0 0 1-1.847-.772 2.835 2.835 0 0 1-.604-1.909 3.062 3.062 0 0 1 .285-1.329l.001-.003a2.25 2.25 0 0 1 .914-.991l.01-.006a2.612 2.612 0 0 1 1.314-.324 3.12 3.12 0 0 1 1.39.318A.667.667 0 0 1 6.8 6.85a1.787 1.787 0 0 0-.825-.183 1.279 1.279 0 0 0-.644.156Zm4.401.399a.921.921 0 0 1 .367-.4 1.277 1.277 0 0 1 .667-.154c.277-.003.552.06.801.182a.667.667 0 1 0 .587-1.198 3.115 3.115 0 0 0-1.39-.318 2.61 2.61 0 0 0-1.314.324l-.01.006c-.399.23-.717.575-.914.99l-.002.004c-.193.416-.29.87-.284 1.328a2.832 2.832 0 0 0 .64 1.955 2.327 2.327 0 0 0 1.811.727c.426.004.85-.068 1.25-.213a.667.667 0 1 0-.452-1.254 2.256 2.256 0 0 1-.802.133c-.017 0-.035 0-.053.002a.993.993 0 0 1-.764-.289 1.499 1.499 0 0 1-.298-1.001c.001-.02.002-.04.001-.06a1.729 1.729 0 0 1 .16-.764Z"/></svg>
